icons/linear-ele-communication-mail-postcard.svg

<svg xmlns="http://www.w3.org/2000/svg" width="32px" height="32px" viewBox="0 0 32 32" version="1.1">
    <title>linear-ele-communication-mail-postcard</title>
    <g id="linear-ele-communication-mail-postcard" stroke-width="1" fill-rule="evenodd">
        <path d="M29,5 C29.5522847,5 30,5.44771525 30,6 L30,26 C30,26.5522847 29.5522847,27 29,27 L3,27 C2.44771525,27 2,26.5522847 2,26 L2,6 C2,5.44771525 2.44771525,5 3,5 L29,5 Z M28,7 L4,7 L4,25 L28,25 L28,7 Z M17,18 C17.5522847,18 18,18.4477153 18,19 C18,19.5522847 17.5522847,20 17,20 L9,20 C8.44771525,20 8,19.5522847 8,19 C8,18.4477153 8.44771525,18 9,18 L17,18 Z M17,14 C17.5522847,14 18,14.4477153 18,15 C18,15.5522847 17.5522847,16 17,16 L9,16 C8.44771525,16 8,15.5522847 8,15 C8,14.4477153 8.44771525,14 9,14 L17,14 Z M22,10 C23.1045695,10 24,10.8954305 24,12 C24,13.1045695 23.1045695,14 22,14 C20.8954305,14 20,13.1045695 20,12 C20,10.8954305 20.8954305,10 22,10 Z" id="&#24418;&#29366;" fill-rule="nonzero" />
    </g>
</svg>

<svg xmlns="http://www.w3.org/2000/svg" viewBox="0 0 32 32"><path fill="currentColor" d="M29 5a1 1 0 0 1 1 1v20a1 1 0 0 1-1 1H3a1 1 0 0 1-1-1V6a1 1 0 0 1 1-1zm-1 2H4v18h24zM17 18a1 1 0 0 1 0 2H9a1 1 0 0 1 0-2zm0-4a1 1 0 0 1 0 2H9a1 1 0 0 1 0-2zm5-4a2 2 0 1 1 0 4 2 2 0 0 1 0-4"/></svg>
